X:467
T:Reeve's Maggot. (p).1701.PLFD.467
M:6/4
L:1/4
Q:3/4=100
S:Playford, Dancing Master,11th Ed.,1701.
O:England
Z:Chris Partington.
K:G
D|G>ABB>AB|gAAA>GA|B>AGE>BA|G2GG2:|
|:G|B/c/dedBG|G>gfg2G|B/c/dedBG|G>gfg>de/f/|
g>ag/f/efg|aAAA>GA|BAGE>BA|G2GG2:|
